.local/share/icons/Gruvbox-Plus-Dark/actions/16/go-previous-use.svg

<svg width="16" height="16" version="1.1" xmlns="http://www.w3.org/2000/svg">
  <defs>
    <style id="current-color-scheme" type="text/css">.ColorScheme-Text { color:#ebdbb2; } .ColorScheme-Highlight { color:#458588; }</style>
  </defs>
  <path class="ColorScheme-Text" d="m1 1v6h14v-6h-14zm14 8-4 3 4 3v-6zm-14 1v4h5v-4h-5zm6 0v4h1v-4h-1z" fill="currentColor"/>
</svg>

<svg xmlns="http://www.w3.org/2000/svg" width="16" height="16" viewBox="0 0 16 16">
 <defs>
  <style id="current-color-scheme" type="text/css">
   .ColorScheme-Text { color:#ebdbb2; } .ColorScheme-Highlight { color:#458588; }
  </style>
 </defs>
 <path style="fill:currentColor" class="ColorScheme-Text" d="M 1 1 L 1 7 L 15 7 L 15 1 L 1 1 z M 15 9 L 11 12 L 15 15 L 15 9 z M 1 10 L 1 14 L 6 14 L 6 10 L 1 10 z M 7 10 L 7 14 L 8 14 L 8 10 L 7 10 z"/>
</svg>
